X: 1
T: Bridget's
R: reel
M: 4/4
L: 1/8
K: Edor
|:E2 BE E2 BE|E2 BE ADFD|E2 BE E2 Bc|dcdA FADF:|
|:efec dAAF|B/c/d ec dAFA|B/c/d ec dA c/B/A|BAdB AdDF:|

